brandFactory_export/3.Masa/Eliminar_papelera_3Masa.svg

<?xml version="1.0" encoding="UTF-8"?>
<svg width="24px" height="24px" viewBox="0 0 24 24" version="1.1" xmlns="http://www.w3.org/2000/svg" xmlns:xlink="http://www.w3.org/1999/xlink">
    <title>3.Masa/Eliminar_papelera_3Masa</title>
    <g id="Symbols" stroke="none" stroke-width="1" fill="none" fill-rule="evenodd">
        <g id="3.Masa/Eliminar_papelera_3Masa" fill="#5CB615" fill-rule="nonzero">
            <path d="M16.0168067,4.96470588 L7.60336134,4.96470588 L7.60336134,2.78991597 C7.60336134,2.28235294 7.71428571,1.91596639 7.93613445,1.71092437 C8.21512605,1.45546218 8.61848739,1.4789916 8.68907563,1.48235294 L14.9142857,1.4789916 C15.2739496,1.4789916 15.5327731,1.56638655 15.707563,1.7512605 C15.989916,2.05042017 16.0268908,2.57815126 16.0168067,2.80336134 L16.0168067,4.96470588 Z M14.9983193,18.0134454 C14.9983193,18.4134454 14.6756303,18.7361345 14.2756303,18.7361345 C13.8789916,18.7361345 13.5529412,18.4134454 13.5529412,18.0134454 L13.5529412,10.6184874 C13.5529412,10.2184874 13.8756303,9.89579832 14.2756303,9.89579832 C14.6722689,9.89579832 14.9983193,10.2184874 14.9983193,10.6184874 L14.9983193,18.0134454 Z M10.0672269,18.0134454 C10.0672269,18.4134454 9.74453782,18.7361345 9.34453782,18.7361345 C8.94453782,18.7361345 8.62184874,18.4134454 8.62184874,18.0134454 L8.62184874,10.6184874 C8.62184874,10.2184874 8.94453782,9.89579832 9.34453782,9.89579832 C9.74453782,9.89579832 10.0672269,10.2184874 10.0672269,10.6184874 L10.0672269,18.0134454 Z M22.9008403,4.96470588 L17.4588235,4.96470588 L17.4588235,2.85042017 C17.4689076,2.72268908 17.5226891,1.57983193 16.7663866,0.769747899 C16.4537815,0.433613445 15.8789916,0.0336134454 14.9142857,0.0336134454 L8.75966387,0.0403361345 C8.65546218,0.0235294118 7.7210084,-0.043697479 6.97815126,0.631932773 C6.43697479,1.12268908 6.16134454,1.8487395 6.16134454,2.78991597 L6.16134454,4.96470588 L0.722689076,4.96470588 C0.322689076,4.96470588 0,5.28739496 0,5.68739496 C0,6.08739496 0.322689076,6.41008403 0.722689076,6.41008403 L2.47058824,6.41008403 L2.47394958,19.7142857 C2.47058824,19.7815126 2.37310924,21.3915966 3.45210084,22.5445378 C4.14117647,23.2806723 5.12268908,23.6571429 6.36638655,23.6571429 L17.2168067,23.6571429 C17.2235294,23.6571429 17.2504202,23.6605042 17.2941176,23.6605042 C17.6436975,23.6605042 19.0420168,23.5966387 20.0672269,22.6151261 C20.789916,21.9226891 21.1563025,20.9579832 21.1563025,19.7478992 L21.1563025,6.41008403 L22.9042017,6.41008403 C23.3008403,6.41008403 23.6268908,6.08739496 23.6268908,5.68739496 C23.6235294,5.2907563 23.3008403,4.96470588 22.9008403,4.96470588 Z" id="Eliminar_papelera_3Masa"></path>
        </g>
    </g>
</svg>

<svg width="24" height="24" viewBox="0 0 24 24" xmlns="http://www.w3.org/2000/svg"><path d="M16.017 4.965H7.603V2.79c0-.508.111-.874.333-1.08.28-.255.682-.231.753-.228l6.225-.003c.36 0 .619.087.794.272.282.3.319.827.309 1.052v2.162zm-1.019 13.048a.722.722 0 11-1.445 0v-7.395a.722.722 0 111.445 0v7.395zm-4.93 0a.722.722 0 11-1.446 0v-7.395a.722.722 0 111.445 0v7.395zM22.9 4.965h-5.442V2.85c.01-.127.064-1.27-.693-2.08-.312-.336-.887-.736-1.852-.736L8.76.04C8.655.024 7.72-.044 6.978.632c-.541.49-.817 1.217-.817 2.158v2.175H.723a.722.722 0 100 1.445H2.47l.003 13.304c-.003.068-.1 1.678.978 2.83.69.737 1.67 1.113 2.914 1.113h10.85c.008 0 .034.004.078.004.35 0 1.748-.064 2.773-1.046.723-.692 1.09-1.657 1.09-2.867V6.41h1.747a.724.724 0 00.723-.723.729.729 0 00-.726-.722z" fill="#5CB615" fill-rule="nonzero"/></svg>
